files/img/heart_filled.svg

<svg id="Ebene_1" data-name="Ebene 1" xmlns="http://www.w3.org/2000/svg" viewBox="0 0 85.99972 77.8244"><defs><style>.cls-1{fill:red;}</style></defs><path class="cls-1" d="M83.7712,15.8845A22.6167,22.6167,0,0,0,69.8282,11c-6.3098,0-13.1254,2.693-19.8284,7.8141C43.2969,13.693,36.4813,11,30.1715,11a22.6167,22.6167,0,0,0-13.943,4.8845c-6.22,4.7425-9.32359,10.7271-9.22628,17.7872C7.33687,57.8477,46.596,86.3746,48.2669,87.5771l1.7329,1.2473,1.733-1.2473c1.6713-1.2025,40.9304-29.7294,41.2647-53.9054C93.0948,26.6116,89.9911,20.627,83.7712,15.8845ZM67.8515,65.8588A181.74459,181.74459,0,0,1,49.9998,81.4652,181.70276,181.70276,0,0,1,32.1482,65.8588C19.696,53.3347,13.0525,42.1748,12.9354,33.5862c-.0704-5.1475,2.1839-9.3943,6.8912-12.9834a16.81215,16.81215,0,0,1,10.3449-3.6697c6.9474,0,13.5831,4.326,17.926,7.955l1.9023,1.5894,1.9023-1.5894c4.343-3.629,10.9787-7.955,17.9261-7.955a16.81236,16.81236,0,0,1,10.3449,3.6697c4.7073,3.5891,6.9616,7.8359,6.8912,12.9834C86.9472,42.1752,80.3032,53.3347,67.8515,65.8588Z" transform="translate(-7 -11)"/><polygon class="cls-1" points="8.809 36.979 16.404 49.553 33.255 66.596 43.532 74.064 60.83 59.574 73.149 45.723 82.149 28.17 82.66 18.723 76.085 7.362 64.596 2.894 48.766 7.043 43.404 12.277 28.596 3.404 15.064 4.043 7.085 12.404 3.255 20.447 8.809 36.979"/></svg>

<svg width="100" height="100" viewBox="0 0 100 100" fill="none" xmlns="http://www.w3.org/2000/svg">
<path d="M83.7712 15.8845C79.52 12.6436 74.829 11 69.8282 11C63.5184 11 56.7028 13.693 49.9998 18.8141C43.2969 13.693 36.4813 11 30.1715 11C25.1707 11 20.4797 12.6436 16.2285 15.8845C10.0085 20.627 6.90491 26.6116 7.00222 33.6717C7.33687 57.8477 46.596 86.3746 48.2669 87.5771L49.9998 88.8244L51.7328 87.5771C53.4041 86.3746 92.6632 57.8477 92.9975 33.6717C93.0948 26.6116 89.9911 20.627 83.7712 15.8845ZM67.8515 65.8588C60.5833 73.1689 53.2491 78.9869 49.9998 81.4652C46.7506 78.9869 39.4164 73.1693 32.1482 65.8588C19.696 53.3347 13.0525 42.1748 12.9354 33.5862C12.865 28.4387 15.1193 24.1919 19.8266 20.6028C23.02 18.1677 26.5006 16.9331 30.1715 16.9331C37.1189 16.9331 43.7546 21.2591 48.0975 24.8881L49.9998 26.4775L51.9021 24.8881C56.2451 21.2591 62.8808 16.9331 69.8282 16.9331C73.499 16.9331 76.9797 18.1677 80.1731 20.6028C84.8804 24.1919 87.1347 28.4387 87.0643 33.5862C86.9472 42.1752 80.3032 53.3347 67.8515 65.8588Z" fill="#FF0000"/>
<path d="M20.5 58.5L10 35.5L12.5 25.5L24 15H37.5L50 22.5L63.5 15H78.5L87 22.5L90.5 35.5L78.5 58.5L50 85.5L20.5 58.5Z" fill="#FF0000" stroke="#FF0000"/>
</svg>
